assets/svg/tosend.svg

<?xml version="1.0" encoding="UTF-8"?>
<svg width="1000px" height="1000px" viewBox="0 0 1000 1000" version="1.1" xmlns="http://www.w3.org/2000/svg" xmlns:xlink="http://www.w3.org/1999/xlink">
    <!-- Generator: sketchtool 52.4 (67378) - http://www.bohemiancoding.com/sketch -->
    <title>tosend</title>
    <desc>Created with sketchtool.</desc>
    <g id="新版图标" stroke="none" stroke-width="1" fill="none" fill-rule="evenodd">
        <g id="tosend" fill="#323233" fill-rule="nonzero">
            <g id="圆角-待发货-线">
                <path d="M166.666667,277.777778 L166.666667,833.333333 L833.333333,833.333333 L833.333333,277.777778 L166.666667,277.777778 Z M111.111111,222.222222 L888.888889,222.222222 L888.888889,833.333333 C888.888889,864.015819 864.015819,888.888889 833.333333,888.888889 L166.666667,888.888889 C135.984181,888.888889 111.111111,864.015819 111.111111,833.333333 L111.111111,222.222222 Z M173.22411,222.222222 L111.111111,222.222222 L151.311489,141.821467 C160.722156,123.000132 179.958996,111.111111 201.001888,111.111111 L798.998112,111.111111 C820.041004,111.111111 839.277844,123.000132 848.688511,141.821467 L888.888889,222.222222 L826.77589,222.222222 L798.998112,166.666667 L201.001888,166.666667 L173.22411,222.222222 Z M527.777778,583.333333 L665.666667,583.333333 C666.218951,583.333333 666.666667,583.781049 666.666667,584.333333 L666.666667,637.888889 C666.666667,638.441174 666.218951,638.888889 665.666667,638.888889 L472.722222,638.888889 C472.44608,638.888889 472.222222,638.665031 472.222222,638.388889 L472.222222,389.888889 C472.222222,389.336604 472.669937,388.888889 473.222222,388.888889 L526.777778,388.888889 C527.330063,388.888889 527.777778,389.336604 527.777778,389.888889 L527.777778,583.333333 Z" id="Rectangle-7-Copy"></path>
            </g>
        </g>
    </g>
</svg>

<svg width="1000" height="1000" xmlns="http://www.w3.org/2000/svg"><path d="M166.667 277.778v555.555h666.666V277.778H166.667zm-55.556-55.556H888.89v611.111c0 30.683-24.873 55.556-55.556 55.556H166.667c-30.683 0-55.556-24.873-55.556-55.556v-611.11zm62.113 0h-62.113l40.2-80.4a55.556 55.556 0 0 1 49.69-30.71h597.997a55.556 55.556 0 0 1 49.69 30.71l40.2 80.4h-62.112l-27.778-55.555H201.002l-27.778 55.555zm354.554 361.111h137.889a1 1 0 0 1 1 1v53.556a1 1 0 0 1-1 1H472.722a.5.5 0 0 1-.5-.5v-248.5a1 1 0 0 1 1-1h53.556a1 1 0 0 1 1 1v193.444z" fill="#323233" fill-rule="nonzero"/></svg>
